src/24x24/places/folder-gruvbox-mix-green-applications.svg

<?xml version="1.0" encoding="UTF-8"?>
<svg width="24" height="24" version="1" xmlns="http://www.w3.org/2000/svg">
 <rect x="2" y="9.5" width="20" height="12" rx="1" ry="1" opacity=".2"/>
 <path d="m2 17c0 0.554 0.446 1 1 1h18c0.554 0 1-0.446 1-1v-11c0-0.554-0.446-1-1-1h-9c-1.5 0-2-2-3.5-2h-5.5c-0.554 0-1 0.446-1 1" fill="#72761e"/>
 <path d="m3 3c-0.554 0-1 0.446-1 1v0.5c0-0.554 0.446-1 1-1h5.5c1.5 0 2 2 3.5 2h9c0.554 0 1 0.446 1 1v-0.5c0-0.554-0.446-1-1-1h-9c-1.5 0-2-2-3.5-2z" fill="#dee2b6" opacity=".1"/>
 <rect x="2" y="8.5" width="20" height="12" rx="1" ry="1" opacity=".2"/>
 <rect x="4" y="7" width="16" height="8" rx="1" ry="1" fill="#dee2b6"/>
 <rect x="2" y="9" width="20" height="12" rx="1" ry="1" fill="#b0b846"/>
 <path d="m9 11c-0.554 0-1 0.446-1 1v1c0 0.554 0.446 1 1 1h1c0.554 0 1-0.446 1-1v-1c0-0.554-0.446-1-1-1h-1zm5 0c-0.554 0-1 0.446-1 1v1c0 0.554 0.446 1 1 1h1c0.554 0 1-0.446 1-1v-1c0-0.554-0.446-1-1-1h-1zm-5 5c-0.554 0-1 0.446-1 1v1c0 0.554 0.446 1 1 1h1c0.554 0 1-0.446 1-1v-1c0-0.554-0.446-1-1-1h-1zm5.5 0c-0.277 0-0.5 0.223-0.5 0.5v0.5h-0.5a0.50005 0.50005 0 0 0-0.35352 0.85352l1 1a0.50005 0.50005 0 0 0 0.70703 0l1-1a0.50005 0.50005 0 0 0-0.35352-0.85352h-0.5v-0.5c0-0.277-0.223-0.5-0.5-0.5z" fill="#3b4439"/>
</svg>

<svg xmlns="http://www.w3.org/2000/svg" width="24" height="24" version="1">
 <rect style="opacity:0.2" width="20" height="12" x="2" y="9.5" rx="1" ry="1"/>
 <path style="fill:#72761e" d="M 2,17 C 2,17.554 2.446,18 3,18 H 21 C 21.554,18 22,17.554 22,17 V 6 C 22,5.446 21.554,5 21,5 H 12 C 10.5,5 10,3 8.5,3 H 3 C 2.446,3 2,3.446 2,4"/>
 <path style="opacity:0.1;fill:#dee2b6" d="M 3,3 C 2.446,3 2,3.446 2,4 V 4.5 C 2,3.946 2.446,3.5 3,3.5 H 8.5 C 10,3.5 10.5,5.5 12,5.5 H 21 C 21.554,5.5 22,5.946 22,6.5 V 6 C 22,5.446 21.554,5 21,5 H 12 C 10.5,5 10,3 8.5,3 Z"/>
 <rect style="opacity:0.2" width="20" height="12" x="2" y="8.5" rx="1" ry="1"/>
 <rect style="fill:#dee2b6" width="16" height="8" x="4" y="7" rx="1" ry="1"/>
 <rect style="fill:#b0b846" width="20" height="12" x="2" y="9" rx="1" ry="1"/>
 <path style="fill:#3b4439" d="M 9 11 C 8.446 11 8 11.446 8 12 L 8 13 C 8 13.554 8.446 14 9 14 L 10 14 C 10.554 14 11 13.554 11 13 L 11 12 C 11 11.446 10.554 11 10 11 L 9 11 z M 14 11 C 13.446 11 13 11.446 13 12 L 13 13 C 13 13.554 13.446 14 14 14 L 15 14 C 15.554 14 16 13.554 16 13 L 16 12 C 16 11.446 15.554 11 15 11 L 14 11 z M 9 16 C 8.446 16 8 16.446 8 17 L 8 18 C 8 18.554 8.446 19 9 19 L 10 19 C 10.554 19 11 18.554 11 18 L 11 17 C 11 16.446 10.554 16 10 16 L 9 16 z M 14.5 16 C 14.223 16 14 16.223 14 16.5 L 14 17 L 13.5 17 A 0.50005 0.50005 0 0 0 13.146484 17.853516 L 14.146484 18.853516 A 0.50005 0.50005 0 0 0 14.853516 18.853516 L 15.853516 17.853516 A 0.50005 0.50005 0 0 0 15.5 17 L 15 17 L 15 16.5 C 15 16.223 14.777 16 14.5 16 z"/>
</svg>
